static/img/logo-lavinmq-all-white.svg

<svg width="120" height="24" viewBox="0 0 120 24" fill="none" xmlns="http://www.w3.org/2000/svg">
<g clip-path="url(#clip0_367_4862)">
<path d="M118.43 17.283L119.801 18.708L117.988 20.289C117.869 20.3913 117.715 20.4448 117.557 20.4381C117.399 20.4314 117.25 20.365 117.141 20.253L116.079 19.149C115.08 19.6311 113.98 19.8816 112.865 19.881C111.256 19.8714 109.698 19.3263 108.451 18.336C107.198 17.341 106.327 15.962 105.979 14.4232C105.631 12.882 105.824 11.2713 106.529 9.85047C107.231 8.43404 108.406 7.29198 109.861 6.61122C111.311 5.93383 112.955 5.76049 114.52 6.11997C116.088 6.48143 117.483 7.35277 118.475 8.59047C119.471 9.83298 120.009 11.3669 120.001 12.9443C119.993 14.5216 119.439 16.0502 118.43 17.283ZM113.823 16.782L111.845 14.721L113.661 13.137C113.78 13.0368 113.933 12.985 114.089 12.9923C114.245 12.9995 114.393 13.0653 114.501 13.176L116.293 15.048C116.671 14.3818 116.867 13.6315 116.861 12.87C116.861 10.47 115.099 8.86497 112.865 8.86497C110.63 8.86497 108.865 10.464 108.865 12.87C108.865 15.276 110.63 16.878 112.865 16.878C113.186 16.8753 113.507 16.8431 113.823 16.782ZM103.965 19.614H100.83V11.772L97.3868 17.346C97.3594 17.3916 97.32 17.4293 97.2727 17.4552C97.2254 17.481 97.1718 17.4941 97.1176 17.493C97.0635 17.4939 97.0101 17.4808 96.9629 17.455C96.9157 17.4291 96.8764 17.3915 96.8491 17.346L93.3814 11.772V19.02C93.3808 19.1781 93.3164 19.3297 93.2022 19.442C93.0879 19.5543 92.9329 19.6182 92.7707 19.62H90.2368V6.12897H93.3722L97.0968 12.129L100.821 6.12897H103.956L103.965 19.614Z" fill="#F7F5F2"/>
<path d="M87.3123 6.12903V19.614H84.9585L79.68 12.3V19.011C79.6801 19.1294 79.6444 19.2452 79.5774 19.3439C79.5103 19.4426 79.4149 19.5199 79.3031 19.566C79.229 19.596 79.1495 19.6113 79.0693 19.611H76.5447V6.12903H78.8954L83.9116 13.065C83.9302 13.0913 83.9569 13.111 83.9879 13.1213C84.0189 13.1316 84.0524 13.1319 84.0836 13.1221C84.1147 13.1124 84.1418 13.0931 84.1609 13.0671C84.1799 13.0412 84.1899 13.0099 84.1893 12.978V6.12903H87.3123ZM73.7785 19.614V6.12903H70.64V19.614H73.7785ZM55.8954 6.12903H59.3239L62.3608 16.05L65.4147 6.12903H68.83L64.4977 19.2C64.4578 19.3196 64.3803 19.4239 64.2762 19.4982C64.1721 19.5725 64.0467 19.613 63.9177 19.614H60.3639L55.8954 6.12903ZM52.8693 17.493H47.7654L47.2216 19.2C47.1825 19.3212 47.105 19.4272 47.0002 19.5026C46.8954 19.5781 46.7688 19.6192 46.6385 19.62H43.6562L48.3208 6.13503H52.3208L56.9847 19.614H53.5654L52.8693 17.493ZM51.9262 14.604L50.3208 9.65403L48.7754 14.4C48.7682 14.4225 48.7665 14.4463 48.7704 14.4696C48.7744 14.4928 48.7839 14.5148 48.7982 14.5338C48.8125 14.5528 48.8312 14.5683 48.8528 14.5789C48.8743 14.5895 48.8982 14.5951 48.9223 14.595L51.9262 14.604ZM41.9223 16.647V19.614H33.887V6.12903H37.0223V16.647H41.9223Z" fill="#F7F5F2"/>
<mask id="mask0_367_4862" style="mask-type:luminance" maskUnits="userSpaceOnUse" x="0" y="0" width="25" height="24">
<path d="M0 0H24.4231V24H0V0Z" fill="white"/>
</mask>
<g mask="url(#mask0_367_4862)">
<path fill-rule="evenodd" clip-rule="evenodd" d="M21.9784 12.3482L21.0138 11.3619L15.6153 6.10517C15.5867 6.07751 15.548 6.06199 15.5076 6.06199C15.4673 6.06199 15.4286 6.07751 15.3999 6.10517L10.0407 11.3229C10.02 11.3431 10.0056 11.3686 9.99905 11.3965C9.99253 11.4244 9.99417 11.4534 10.0038 11.4804L10.1884 11.9979L9.57687 11.3747L7.42379 9.27842C7.4097 9.26454 7.39292 9.25352 7.37444 9.24601C7.35595 9.23849 7.33612 9.23462 7.3161 9.23462C7.29607 9.23462 7.27624 9.23849 7.25775 9.24601C7.23927 9.25352 7.22249 9.26454 7.2084 9.27842L2.95763 13.4184C2.94955 13.4261 2.93944 13.4315 2.92841 13.434C2.91739 13.4365 2.90588 13.4359 2.89515 13.4324C2.88442 13.429 2.87488 13.4227 2.86758 13.4142C2.86028 13.4058 2.85551 13.3956 2.85379 13.3847C2.7833 12.9264 2.74782 12.4636 2.74763 12.0002C2.74763 6.87242 6.99302 2.70017 12.2115 2.70017C17.1599 2.70017 21.2323 6.45242 21.6399 11.2134C21.653 11.3664 21.6861 11.6492 21.7376 11.7939C21.8338 12.0624 21.9823 12.3519 21.9784 12.3482ZM12.6907 21.7149L11.8669 21.3369C11.6992 21.2814 11.2207 21.2462 11.0453 21.2244C7.95456 20.8494 5.32148 19.0082 3.89302 16.4289C3.88053 16.406 3.87595 16.3797 3.87997 16.3541C3.88399 16.3284 3.89639 16.3047 3.91533 16.2864L7.21533 13.0734C7.22366 13.0651 7.23436 13.0595 7.24604 13.0572C7.25772 13.0549 7.26983 13.0561 7.28079 13.0606C7.29175 13.0652 7.30106 13.0728 7.3075 13.0826C7.31393 13.0924 7.3172 13.1038 7.31686 13.1154V16.4582C7.31683 16.4978 7.33287 16.5358 7.36148 16.5639L11.833 20.9184L12.6907 21.7149ZM24.423 12.0002C24.423 5.09117 18.4815 -0.454332 11.3453 0.0294183C5.32302 0.437418 0.445326 5.23142 0.0299413 11.1489C-0.462366 18.1614 5.18071 24.0002 12.2115 24.0002H22.1723C22.2028 24 22.2327 23.991 22.258 23.9742C22.2833 23.9575 22.303 23.9339 22.3145 23.9062C22.326 23.8786 22.3289 23.8483 22.3227 23.8191C22.3166 23.7899 22.3017 23.7631 22.2799 23.7422L13.4876 15.1802H13.4861L11.8207 13.5602C11.7979 13.5377 11.7852 13.5074 11.7852 13.4758C11.7852 13.4442 11.7979 13.4139 11.8207 13.3914L15.4053 9.90092C15.4137 9.89278 15.4244 9.88725 15.436 9.88501C15.4476 9.88277 15.4596 9.88393 15.4706 9.88834C15.4815 9.89275 15.4909 9.90021 15.4974 9.90979C15.504 9.91937 15.5076 9.93063 15.5076 9.94217V13.3097C15.5076 13.3337 15.5169 13.3562 15.5346 13.3734L24.1615 21.7734C24.1831 21.7941 24.2104 21.808 24.2401 21.8136C24.2698 21.8192 24.3006 21.8161 24.3285 21.8047C24.3564 21.7934 24.3802 21.7742 24.397 21.7497C24.4139 21.7252 24.4229 21.6964 24.423 21.6669V12.2499L24.4161 12.2559C24.4184 12.1704 24.423 12.0857 24.423 12.0002Z" fill="#F7F5F2"/>
</g>
</g>
<defs>
<clipPath id="clip0_367_4862">
<rect width="120" height="24" fill="white"/>
</clipPath>
</defs>
</svg>

<svg xmlns="http://www.w3.org/2000/svg" width="120" height="24" fill="none" viewBox="0 0 120 24"><g clip-path="url(#a)"><path fill="#f7f5f2" d="m118.43 17.28 1.37 1.43-1.81 1.58a.6.6 0 0 1-.85-.04l-1.06-1.1q-1.52.72-3.22.73a7.2 7.2 0 0 1-4.4-1.54 6.9 6.9 0 0 1-1.92-8.49 7 7 0 0 1 3.32-3.24 7.2 7.2 0 0 1 8.61 1.98 6.9 6.9 0 0 1-.04 8.7m-4.6-.5-1.98-2.06 1.81-1.58a.6.6 0 0 1 .84.04l1.8 1.87q.56-1.02.56-2.18c0-2.4-1.76-4-4-4-2.23 0-4 1.6-4 4s1.77 4 4 4q.5 0 .96-.09m-9.86 2.83h-3.14v-7.84l-3.44 5.58a.3.3 0 0 1-.27.14.3.3 0 0 1-.27-.14l-3.47-5.58v7.25a.6.6 0 0 1-.18.42.6.6 0 0 1-.43.18h-2.53V6.12h3.13l3.73 6 3.72-6h3.14zM87.31 6.13V19.6h-2.35l-5.28-7.31V19a.6.6 0 0 1-.1.33.6.6 0 0 1-.51.27h-2.53V6.13h2.36l5.01 6.94.08.05a.2.2 0 0 0 .17-.05l.03-.1V6.14zM73.78 19.6V6.13h-3.14V19.6zM55.9 6.13h3.42l3.04 9.92 3.05-9.92h3.42L64.5 19.2a.6.6 0 0 1-.22.3.6.6 0 0 1-.36.11h-3.56zm-3.03 11.36h-5.1l-.55 1.71a.6.6 0 0 1-.22.3.6.6 0 0 1-.36.12h-2.98l4.66-13.48h4l4.66 13.47h-3.41zm-.94-2.89-1.6-4.95-1.55 4.75a.15.15 0 0 0 .07.18l.07.02zm-10 2.05v2.96h-8.04V6.13h3.13v10.52z"/><mask id="b" width="25" height="24" x="0" y="0" maskUnits="userSpaceOnUse" style="mask-type:luminance"><path fill="#fff" d="M0 0h24.42v24H0z"/></mask><g mask="url(#b)"><path fill="#f7f5f2" fill-rule="evenodd" d="m21.98 12.35-.97-.99-5.4-5.25a.15.15 0 0 0-.21 0l-5.36 5.21a.2.2 0 0 0-.04.16l.19.52-.61-.63-2.16-2.1-.1-.04-.11.05-4.25 4.14a.06.06 0 0 1-.1-.04q-.12-.68-.11-1.38a9.4 9.4 0 0 1 9.46-9.3 9.4 9.4 0 0 1 9.43 8.51c.01.16.05.44.1.58.1.27.24.56.24.56m-9.29 9.36-.82-.37c-.17-.06-.65-.1-.82-.12a9.5 9.5 0 0 1-7.17-4.87q0-.04.04-.06l3.3-3.22h.06l.03.01v3.38q0 .06.05.1l4.47 4.36zM24.42 12c0-6.9-5.94-12.45-13.07-11.97C5.32.43.45 5.23.03 11.15A12.1 12.1 0 0 0 12.21 24h9.96a.2.2 0 0 0 .14-.1.2.2 0 0 0-.03-.16l-8.8-8.56-1.66-1.62a.12.12 0 0 1 0-.17l3.59-3.49.06-.01.04.05v3.37q0 .04.02.06l8.63 8.4a.2.2 0 0 0 .17.03.2.2 0 0 0 .1-.13v-9.42h-.01z" clip-rule="evenodd"/></g></g><defs><clipPath id="a"><path fill="#fff" d="M0 0h120v24H0z"/></clipPath></defs></svg>
